Origami/64x64/apps/feedindicator.svg

<svg width="64" height="64" version="1.1" viewBox="0 0 64 64" xmlns="http://www.w3.org/2000/svg">
 <circle cx="32" cy="33" r="28" style="fill-rule:evenodd;opacity:.2"/>
 <path d="M 60,32 C 60,47.463972 47.463972,60 32,60 16.536027,60 4,47.463972 4,32 4,16.536027 16.536027,4 32,4 c 0.31399,0 0.891926,2.325244 1.203422,2.3355002 7.009088,0.23078 10.18445,4.0982358 14.973394,8.5648268 5.297828,4.941222 9.538166,8.466691 9.75695,16.229771 C 57.941288,31.397052 60,31.731228 60,32 Z" style="fill:#8e8e8e"/>
 <path d="m60 32h-28v-28c15.463972 0 28 12.536027 28 28z" style="fill:#ff9044"/>
 <path d="m32 13a20 20 0 0 0 -20 20 20 20 0 0 0 20 20 20 20 0 0 0 20 -20 20 20 0 0 0 -20 -20zm0 3a17 17 0 0 1 17 17 17 17 0 0 1 -17 17 17 17 0 0 1 -17 -17 17 17 0 0 1 17 -17z" style="opacity:.2"/>
 <path d="m32 12a20 20 0 0 0 -20 20 20 20 0 0 0 20 20 20 20 0 0 0 20 -20 20 20 0 0 0 -20 -20zm0 3a17 17 0 0 1 17 17 17 17 0 0 1 -17 17 17 17 0 0 1 -17 -17 17 17 0 0 1 17 -17z" style="fill:#ffffff"/>
 <circle cx="32" cy="33" r="11" style="opacity:.2"/>
 <circle cx="32" cy="32" r="11" style="fill:#ffffff"/>
 <circle cx="32" cy="32" r="8" style="fill:#3f3f3f"/>
 <path d="M 32 4 A 28 28 0 0 0 4 32 A 28 28 0 0 0 4.0175781 32.492188 A 28 28 0 0 1 32 5 A 28 28 0 0 1 59.974609 32.492188 A 28 28 0 0 0 60 32 A 28 28 0 0 0 32 4 z" style="fill-rule:evenodd;fill:#ffffff;opacity:.2"/>
</svg>

<svg xmlns="http://www.w3.org/2000/svg" width="64" height="64" version="1.1" viewBox="0 0 64 64">
 <circle style="opacity:0.2;fill-rule:evenodd" cx="32" cy="33" r="28"/>
 <path style="fill:#8e8e8e" d="M 60,32 C 60,47.463972 47.463972,60 32,60 16.536027,60 4,47.463972 4,32 4,16.536027 16.536027,4 32,4 c 0.31399,0 0.891926,2.325244 1.203422,2.3355002 7.009088,0.23078 10.18445,4.0982358 14.973394,8.5648268 5.297828,4.941222 9.538166,8.466691 9.75695,16.229771 C 57.941288,31.397052 60,31.731228 60,32 Z"/>
 <path style="fill:#ff9044" d="m 60,32 c 0,0 -12.536028,0 -28,0 L 32,4 c 15.463972,0 28,12.536027 28,28 z"/>
 <path d="M 32,13 A 20,20 0 0 0 12,33 20,20 0 0 0 32,53 20,20 0 0 0 52,33 20,20 0 0 0 32,13 Z m 0,3 A 17,17 0 0 1 49,33 17,17 0 0 1 32,50 17,17 0 0 1 15,33 17,17 0 0 1 32,16 Z" style="opacity:0.2"/>
 <path style="fill:#ffffff" d="M 32 12 A 20 20 0 0 0 12 32 A 20 20 0 0 0 32 52 A 20 20 0 0 0 52 32 A 20 20 0 0 0 32 12 z M 32 15 A 17 17 0 0 1 49 32 A 17 17 0 0 1 32 49 A 17 17 0 0 1 15 32 A 17 17 0 0 1 32 15 z"/>
 <circle style="opacity:0.2" cx="32" cy="33" r="11"/>
 <circle cx="32" cy="32" r="11" style="fill:#ffffff"/>
 <circle style="fill:#3f3f3f" cx="32" cy="32" r="8"/>
 <path style="opacity:0.2;fill:#ffffff;fill-rule:evenodd" d="M 32 4 A 28 28 0 0 0 4 32 A 28 28 0 0 0 4.0175781 32.492188 A 28 28 0 0 1 32 5 A 28 28 0 0 1 59.974609 32.492188 A 28 28 0 0 0 60 32 A 28 28 0 0 0 32 4 z"/>
</svg>
